Kaze-dark-colors/24x24/actions/document-save.svg

<?xml version="1.0" encoding="UTF-8" standalone="no"?>
<svg xmlns:inkscape="http://www.inkscape.org/namespaces/inkscape" xmlns:sodipodi="http://sodipodi.sourceforge.net/DTD/sodipodi-0.dtd" xmlns="http://www.w3.org/2000/svg" xmlns:svg="http://www.w3.org/2000/svg" width="24" height="24" viewBox="0 0 24 24" fill="none" version="1.1" id="svg3" sodipodi:docname="document-save.svg" inkscape:version="1.4 (e7c3feb100, 2024-10-09)">
  <defs id="defs1">
    <style id="current-color-scheme" type="text/css">
      .ColorScheme-Text { color:#e6f0f5; }
      .ColorScheme-Highlight { color:#2179cb; }
      .ColorScheme-Background { color:#e4e4e4; }
    </style>
  </defs>
  <sodipodi:namedview id="namedview3" pagecolor="#ffffff" bordercolor="#ffffff" borderopacity="0.25" inkscape:showpageshadow="2" inkscape:pageopacity="0.0" inkscape:pagecheckerboard="0" inkscape:deskcolor="#d1d1d1" inkscape:zoom="33.291667" inkscape:cx="11.984981" inkscape:cy="12" inkscape:window-width="1920" inkscape:window-height="1008" inkscape:window-x="0" inkscape:window-y="0" inkscape:window-maximized="1" inkscape:current-layer="svg3"/>
  <g clip-path="url(#clip0_3037_238)" id="g3">
    <path id="path3" d="M 17,20 H 7 v -6 c 0,-0.5523 0.44771,-1 1,-1 h 8 c 0.5523,0 1,0.4477 1,1 z M 8,4 h 7 c 0.5523,0 1,0.44772 1,1 v 3 c 0,0.55228 -0.4477,1 -1,1 H 9 C 8.44772,9 8,8.55228 8,8 Z M 4,6 C 4,4.89543 4.89543,4 6,4 h 9.1716 c 0.5304,0 1.0391,0.21071 1.4142,0.58579 l 2.8284,2.82842 C 19.7893,7.78929 20,8.29799 20,8.82843 V 18 c 0,1.1046 -0.8954,2 -2,2 H 6 C 4.89543,20 4,19.1046 4,18 Z" style="stroke:#ffffff;stroke-opacity:1;stroke-linejoin:round;stroke-linecap:round;stroke-width:1.2;stroke-dasharray:none"/>
    <path id="path3" d="M 17,20 H 7 v -6 c 0,-0.5523 0.44771,-1 1,-1 h 8 c 0.5523,0 1,0.4477 1,1 z M 8,4 h 7 c 0.5523,0 1,0.44772 1,1 v 3 c 0,0.55228 -0.4477,1 -1,1 H 9 C 8.44772,9 8,8.55228 8,8 Z M 4,6 C 4,4.89543 4.89543,4 6,4 h 9.1716 c 0.5304,0 1.0391,0.21071 1.4142,0.58579 l 2.8284,2.82842 C 19.7893,7.78929 20,8.29799 20,8.82843 V 18 c 0,1.1046 -0.8954,2 -2,2 H 6 C 4.89543,20 4,19.1046 4,18 Z" style="stroke:currentColor;opacity:0.5;stroke-linejoin:round;stroke-linecap:round;stroke-width:1.2;stroke-dasharray:none" class="ColorScheme-Highlight"/>
  </g>
  <defs id="defs3">
    <clipPath id="clip0_3037_238">
      <rect width="24" height="24" fill="white" id="rect3"/>
    </clipPath>
  </defs>
</svg>

<svg width="24" height="24" viewBox="0 0 24 24" fill="none" xmlns="http://www.w3.org/2000/svg">
<g clip-path="url(#clip0_3037_238)">
<path d="M4 6C4 4.89543 4.89543 4 6 4H15.1716C15.702 4 16.2107 4.21071 16.5858 4.58579L19.4142 7.41421C19.7893 7.78929 20 8.29799 20 8.82843V18C20 19.1046 19.1046 20 18 20H6C4.89543 20 4 19.1046 4 18V6Z" stroke="#DDDDDD" stroke-width="1.2"/>
<path d="M8 4H15C15.5523 4 16 4.44772 16 5V8C16 8.55228 15.5523 9 15 9H9C8.44772 9 8 8.55228 8 8V4Z" stroke="#DDDDDD" stroke-width="1.2"/>
<path d="M17 20L7 20L7 14C7 13.4477 7.44771 13 8 13L16 13C16.5523 13 17 13.4477 17 14L17 20Z" stroke="#DDDDDD" stroke-width="1.2"/>
</g>
<defs>
<clipPath id="clip0_3037_238">
<rect width="24" height="24" fill="white"/>
</clipPath>
</defs>
</svg>
